!!!COM: Scriabin, Alexander
!!!OTL@@FR: Prélude en sol mineur
!!!OTL@@EN: Prelude in G Minor
!!!OPR@@FR: 24 Préludes
!!!OPR@@EN: 24 Preludes
!!!OPS: 11
!!!ONM: 22
!!!ODT: 1896
!!!AGN: Prelude
**kern	**kern	**dynam
*staff2	*staff1	*staff1/2
*Ipiano	*Ipiano	*
*clefF4	*clefG2	*
*k[b-e-]	*k[b-e-]	*
*g:	*g:	*
*M3/4	*M3/4	*
=1	=1	=1
*	*^	*
2G	2e- 2b-	8ddL	.
.	.	8cc	.
.	.	8ee-	.
.	.	8b-	.
[4F#X	4e- 4a	8dd	.
.	.	8ccJ	.
=2	=2	=2	=2
8F#L]	8b-L	4d 4b-	.
8GJ	8gJ	.	.
4.Fn	4c 4g	2a	.
.	4c 4g	.	.
8E-	.	.	.
=3	=3	=3	=3
2D	4B- 4g-X	8b-L	.
.	.	8aJ	.
.	4B- 4f	8b-L	.
.	.	8fJ	.
[4D	4B- 4en	8aL	.
.	.	8gnJ	.
=4	=4	=4	=4
4D]	4B- 4e-X	2g	.
4.C	4A 4e-	.	.
.	4d	4f#X	.
8BBn	.	.	.
=5	=5	=5	=5
8BBnL	4d 4fn	2.g	.
8CJ	.	.	.
4.G	4c 4f	.	.
.	4c 4f	.	.
8D-X	.	.	.
=6	=6	=6	=6
8D-XL	4Bn 4f	4g	.
8DnJ	.	.	.
2F	4B 4d	4a-X	.
.	4B 4d	4g	.
=7	=7	=7	=7
*	*	*^	*
2.E-	4r	4c	4g	.
.	2g	4Bn	4dd	.
.	.	4c	4cc	.
*	*	*v	*v	*
=8	=8	=8	=8
2.D	2d 2f#X	4b-	.
.	.	4.a	.
.	4A 4fn	.	.
.	.	8a	.
=9	=9	=9	=9
2D	2B- 2f	8aL	.
.	.	8g	.
.	.	8b-	.
.	.	8f	.
[4C#X	4B- 4en	8a	.
.	.	8gJ	.
=10	=10	=10	=10
8C#L]	8fL	4A 4f	.
8DJ	8dJ	.	.
4.Cn	4G 4d	2en	.
.	4G 4d	.	.
8BB-	.	.	.
=11	=11	=11	=11
2AA	4F 4d-X	8fL	.
.	.	8enJ	.
.	4F 4c	8fL	.
.	.	8cJ	.
[4AA	4F 4Bn	8eL	.
.	.	8dnJ	.
=12	=12	=12	=12
4AA]	4F 4B-X	2d	.
4.GG	4En 4B-	.	.
.	4A	4c#X	.
8FF#X	.	.	.
=13	=13	=13	=13
8FF#XL	4A 4cn	[2.d	.
[8GGJ	.	.	.
4.GG] 4.D	4G 4c	.	.
.	4A 4c	.	.
8AA-X	.	.	.
=14	=14	=14	=14
8AA-XL	4F#X 4c	4d]	.
[8AAnJ	.	.	.
4.AA] 4.F#X	4F# 4c	4e-	.
.	4F# 4c	4d	.
8AA	.	.	.
=15	=15	=15	=15
8AAL	4rc	4raa	.
[8BB-J	.	.	.
4.BB-] 4.F	4d	[2G [2g	.
.	4d-X	.	.
8BBn	.	.	.
=16	=16	=16	=16
8CL	8cL	4G] 4g]	.
[8D-XJ	8BnJ	.	.
4.D-] 4.Bn	2f	4A-X 4a-X	.
.	.	4G 4g	.
8Dn	.	.	.
=17	=17	=17	=17
8DL	4rc	4raa	.
[8E-J	.	.	.
4.E-] 4.c	2e-	4G 4g	.
.	.	4A-X 4a-X	.
8D	.	.	.
=18	=18	=18	=18
8DL	4rc	4raa	.
[8E-J	.	.	.
4.E-] 4.c	2g	4An 4an	.
.	.	4B- 4b-	.
8D	.	.	.
=19	=19	=19	=19
8DL	4rc	4raa	.
[8E-J	.	.	.
4.E-] 4.c#X	4.g	4B- 4b-	.
.	.	8A 8a	.
8e-	8g	8a 8cc#X	.
*	*v	*v	*
=20	=20	=20
2.e-	2.g 2.a 2.cc#X	.
=21	=21	=21
*	*^	*
8dL	2g 2b-	8ddL	.
8e-J	.	8cc	.
4c	.	8ee-	.
.	.	8b-	.
8GL	4e- 4g	8dd	.
8AJ	.	8ccJ	.
=22	=22	=22	=22
8B-L	2e- 2g	8b-L	.
8cJ	.	8a	.
4A	.	8cc	.
.	.	8g	.
[4E-	[4c 4g	8b-	.
.	.	8aJ	.
=23	=23	=23	=23
4E-]	4c]	4g	.
4r	4rc	4raa	.
4r	4rc	4raa	.
*	*v	*v	*
=24	=24	=24
4D	4A 4d 4f#X	.
4r	4r	.
4r	4r	.
=25	=25	=25
2GGG 2GG 2D	2B- 2d 2g	.
4r	4r	.
==	==	==
*-	*-	*-
!!!system-decoration: {(*)}
!!!ENC: Bryan Jacob Bell
!!!END: November 2021 to April 2022
!!!PED: Günter Philipp
!!!PTL: Ausgewählte Klavierwerke (Edition Peters)
